!!!OTL-incipit: AUFM BERG STEHT A SCHLOSS
!!!ARE: Europa, Mitteleuropa, Deutschland, Mitteleuropa, Schweiz
!!!SCT: Z0111
!!!YEM: Copyright 1995, estate of Helmut Schaffrath.
**kern	**text
*ICvox	*
*M3/4	*
*k[f#]	*
*G:	*
!LO:TX:a:t=Schweiʒ.	!
{8.d	Auf'm
16d	.
=1	=1
4d	Berg
4.b/	ſteht
(16aL	a
16gJ)	.
=2	=2
4.f#	Schloß
8r}	.
{8.d	und
16d	da
=3	=3
4d	wohnt
4.cc	ei-
(16bL	-ne
16aJ)	.
=4	=4
4.dd	Maid,
8r}	.
{8.d	und
16d	da
=5	=5
4d	Bub
4.b/	aus
(16aL	der
16gJ)	.
=6	=6
4e	Fern
4.gg}	hat
{8ee	und
=7	=7
(8eeL	Mä-
8ddJ)	.
4f#	-del
(8bL	ge-
8aJ)	.
=8	=8
4.g	-freit;
4r}	.
{8dd	la
=9	=9
4.dd	la
8aaL	.
8ff#	.
8ddJ	.
=10	=10
4.gg	.
8ddL	.
8b	.
8gJ}	.
=11	=11
{8eeL	.
8ddJ	.
8eeL	.
8ddJ	.
8ccL	.
8aJ	.
=12	=12
8eeL	la
8dd	.
8b	.
8gJ	.
8dL}	.
{8ddJ	.
=13	=13
4.dd	.
8aaL	.
8ff#	.
8ddJ	.
=14	=14
4.bb	.
8ggL	.
8dd	.
8bJ}	.
=15	=15
{8eeL	la
8ddJ	.
8eeL	.
8ddJ	.
8f#L	.
8aJ	.
=16	=16
4.g	.
8r}	.
==	==
!!!AGN: Sagen - Lied, Romanze
!!!ONB: ESAC (Essen Associative Code) Database: ZUCCAL
!!!AMT: simple triple
!!!AIN: vox
!!!EED: Helmut Schaffrath
!!!EEV: 1.0
!!!GTL: I. Ernste Romanzen und Sagen.
!!!URL-scan: https://www.digitale-sammlungen.de/de/view/bsb11160571?page=213
!!!ENC: Anna Maria Matuszewska
!!!EEV: 2025/01/27
*-	*-
